!!!OTL: Et wohnt sich ein Weibsbild (2-7), S. 15
!!!id: K1101
**kern
*clefG2
*k[b-]
*F:
{4f
=1
4f
4c
4a
=2
4a
4f
8.cc
16cc
=3
4.cc
8b-
4a
=4
4a
4g}
=5
{4f
=6
4f
4c
4a
=7
4a
4f
8.cc
16cc
=8
4.cc
8b-
4a
=9
4a
4g}
=10
{8.dd
16dd
=11
8.cc
16cc
8.cc
16f
8.f
16f
=12
4f
4e}
=13
{8.dd
16dd
=14
8.cc
16cc
8.cc
16f
8.f
16f
=15
4f
4e}
=16
{8.f
16a
=17
8.cc
16cc
8.cc
16cc
8.dd
16dd
=18
4cc
4cc
8.a
16a
=19
4b-
4b-
4dd
=20
2cc}
=21
{8.a
16a
=22
4cc
4cc
4b-
=23
2a}
==
*-
!!!minrhy: 16
!!!meters: 3/4 ]  ZZ[6
!!!cut: Et wohnt sich ein Weibsbild (2-7), S. 15
!!!reg: Luxemburg
!!!trd: KINTZELE, Guillaume: An der Ucht, Bd. 2, Luxemburg 1927
!!!rhy1: X__  X__X__X__  X__X__X_.X  X__.X_X__  X__X__
!!!rhy2: X__  X__X__X__  X__X__X_.X  X__.X_X__  X__X__
!!!key: K1101  16  F 3/4 ]  ZZ[6
!!!mod: HEPTATONIK IONISCH]  AMBITUS[9
!!!kad: 22-7-753
!!!akz: 1353_1353_51_51_5545_53_
!!!fot: 'a__a__b__b__c__d__
!!!for: 'a__a__b__b__bw_aw_
!!!fok: '^a_^a_\__\__~a_^__
!! PHRAS[AUFTAKTIG]
!!!fkt: Spottlied
!!!bem: in der Quelle mit einer 2. Stimme versehen
!! KINTZELE
!! PR[12] 2K[6] 2G[15] 3K[8] 3G[8] 4A[4] 4Ü[0] 5A[0] 6K[0] 6G[4]
!! 7K[0] 7G[0] 8A[0] MEHR[0] SI[44] ABS[52] SR[21] SP[23]
!! ST[12] 2k[2] 2g[15] 3k[13] 3g[12] 4d[0] 4ü[0] 5d[0] 6k[2] 6g[0]
!! 7k[0] 7g[0] 8d[0] mehr[0] si[44] dm[0] sr[17] sp[27]
!! 1F[2] 2F[75] 3F[14] 4F[0] LF[0] 2P[2] 3P[7] 4P[0] TRI[0] DF[5] AB[56]
!! TF[0] U3K[0] U3[0] U4[0] U4Ü[0] U5[2] U6K[0] U6[0] U7K[0] U7[2]
!! N1[15] N2K[0] N2[8] N3K[0] N3[13] N4[13] N4Ü[0] N5[19] N6K[0] N6[23]
!!!n7k: 0] N7[2] O1[4] O2K[0] O2[0] O3K[0] O3[0] HÖ[0
